X:5993
T:Shepherds' Hey
O:england
M:2/2
K:G
P:AABB
P:A
D|"G"BcdB "C"c2 (3cdc|"G"BcdB "D7"A2 D2|"G"BcdB "C"c2 Bc|"D7"d2 D2 "G"G2>:|
P:B
|:A2|"G"B2 G2 "C(D7)"c2>A2|"G"B2 "D7"G2 A2>A2|"G"BcdB "C"c2 Bc|"D7"d2 D2 "G"G2:|


